X:634
T:Pam's Peerie Tune 
C:Joe Buchanan's Scottish Tome - Page 189.2
I:189 2
C:Tom Anderson
R:Reel
Z:Carl Allison
L:1/8
M:4/4
K:G
(BA) | G(3EDE GFGA | B(3AB<d [Be]2 (de) | gage e(3BAG | GBAG [Dd]2 (BA) |
A(3EDE GFGA | B(3AB<d [Be]2 (de) | gage d(3BAG | [GB]2 ([GB]2 [G)B]2 :|
(ef) | gd (3ddd eB (3BBB | e(3de<g B2 (ef) | gd (3ddd efge | d(3BAG A2 (ef) |
gd (3ddd eB (3BBB | e(3deg d2 ef | gage d(3BAG | [GB]2 ([GB]2 [G)B]2 :|

